X:1
T:Title
%%score ( 1 2 ) ( 3 4 )
L:1/8
Q:1/4=95
M:2/4
K:G
V:1 treble nm="Grand Piano, Soprano"
V:2 treble 
V:3 bass nm="Choir Pad, Bright Easter Skies"
V:4 bass 
V:1
 [Gd]2 [GB][Gd] | [_Be]2 [=Bd]2 | [GB]2 [DG][GB] | c2 B2 | [EA]2 [^Ge][Bd] | [Ac]4 | %6
w: By~George~W.~Marston~(1840\-1901) * *||||||
 [DG]2 [FB][FA] | [DG]4 | [CA]2 [CE]>[DF] | [EG]3 [FA] | [GB]2 [Gc]2 | B2 A2 | [CA]2 [CE]>[DF] | %13
w: |||||||
 [EG]3 [FA] | [GB]2 [Gc]2 | [Fd]4 | [CA]2 [CE]>[DF] | [EG]3 [FA] | [GB]2 [Gc]2 | B2 A2 | %20
w: |||||||
 [Fd]2 [Fc][Fc] | [FB]3 [EG] | [DF]2 [CF]2 | [DF]4 | [B,E]2 [B,E]>[^DF] | [EG]3 [EG] | %26
w: ||||||
 [A,D]2 [CE]2 | [DF]3 [DF] | [B,E][^DF] [EG][FA] | [GB][Ec] [Dd]2 | [DF]2 [CE]2 | D4 | %32
w: ||||||
 [Gd]2 [GB][Gd] | [_Be]2 [=Bd]2 | [GB]2 [DG][GB] | c2 B2 | [EA]2 [^Ge][Bd] | [Ac]4 | %38
w: ||||||
 [DG]2 [FB][FA] | [DG]4- | [DG]4 |] %41
w: |||
V:2
 x4 | x4 | x4 | G4 | x4 | x4 | x4 | x4 | x4 | x4 | x4 | G4 | x4 | x4 | x4 | x4 | x4 | x4 | x4 | %19
 F4 | x4 | x4 | x4 | x4 | x4 | x4 | x4 | x4 | x4 | x4 | x4 | x4 | x4 | x4 | x4 | G4 | x4 | x4 | %38
 x4 | x4 | x4 |] %41
V:3
 [G,B,]2 [G,D][G,B,] | ^C2 D2 | [G,D]2 [G,B,][G,D] | E2 D2 | C2 [E,B,][E,E] | [A,C]4 | %6
 [D,B,]2 [D,C][D,C] | [G,B,]4 | A,,A, A,,A, | A,,A, A,,A, | A,,A, A,,A, | D,A, D,A, | A,,A, A,,A, | %13
 A,,A, A,,A, | A,,A, A,,A, | [D,A,]4 | [A,,A,]2 [A,,A,]2 | [A,,A,]2 [A,,A,]2 | [A,,A,]2 [A,,A,]2 | %19
 [D,A,]4 | [B,,B,]2 [C,_B,][C,B,] | [D,B,]3 [E,B,] | [F,B,]2 [F,_B,]2 | [B,,B,]4 | %24
 [G,B,]2 [G,B,]>[F,B,] | [E,B,]3 [E,B,] | [A,,F,]2 [A,,A,]2 | [D,A,]3 [D,A,] | B,-[F,B,] [E,B,]2 | %29
 [E,G,][F,A,] [G,B,]2 | A,2 [A,,G,]2 | [B,,F,]4 | [G,B,]2 [G,D][G,B,] | ^C2 D2 | %34
 [G,D]2 [G,B,][G,D] | E2 D2 | C2[K:bass] [E,B,][E,E] | [A,E]4 | [D,B,]2 [D,C][D,C] | [G,B,]4- | %40
 [G,B,]4 |] %41
V:4
 x4 | G,4 | x4 | G,4 | x4 | x4 | x4 | x4 | x4 | x4 | x4 | x4 | x4 | x4 | x4 | x4 | x4 | x4 | x4 | %19
 x4 | x4 | x4 | x4 | x4 | x4 | x4 | x4 | x4 | .G,2 z2 | x4 | x4 | x4 | x4 | G,4 | x4 | G,4 | %36
 x2[K:bass] x2 | x4 | x4 | x4 | x4 |] %41

